src/microsoft-outlook.svg

<svg viewBox="0 0 24 24" fill="none" xmlns="http://www.w3.org/2000/svg">
<path d="M21.7812 12.9C21.8728 12.6097 21.9458 12.3137 22 12.014C22 11.8639 21.9206 11.7253 21.7917 11.6503V11.65L21.7837 11.6454L21.7812 11.644L15.0075 7.75073C14.9782 7.73164 14.9479 7.71422 14.9167 7.69854V7.6985C14.6541 7.56713 14.3458 7.56713 14.0833 7.6985L14.0833 7.69854C14.0521 7.71421 14.0218 7.73163 13.9925 7.75073L7.21879 11.644L7.21629 11.6454L7.20832 11.65V11.6503C7.07945 11.7253 7 11.8639 7 12.014C7.05416 12.3137 7.12725 12.6097 7.21881 12.9L14.4012 18.2L21.7812 12.9Z" fill="#0A2767"/>
<path d="M19.7295 3.19995H9.07049C8.83962 3.19995 8.6182 3.29364 8.45494 3.46041C8.29169 3.62717 8.2 3.85336 8.2 4.0892V5.09995L14.2079 6.99995L20.6 5.09995V4.08915C20.6 3.59805 20.2102 3.19995 19.7295 3.19995Z" fill="#0364B8"/>
<path d="M17.045 5H12.665L11.4 6.9L12.665 8.8L17.045 12.6H20.8V8.8L17.045 5Z" fill="#28A8EA"/>
<path d="M16.993 12.548L12.597 8.80005H8.2V12.548L12.597 16.296L19.4 17.4L16.993 12.548Z" fill="#0364B8"/>
<path d="M12.6 12.6H8.2V16.4H12.6V12.6Z" fill="#064A8C"/>
<path d="M17 8.80005H12.6V12.6H17V8.80005Z" fill="#0078D4"/>
<path d="M20.8 12.6H17V16.4H20.8V12.6Z" fill="#0078D4"/>
<path opacity="0.5" d="M14.605 17.8L7.2 12.3681L7.51026 11.8192C7.51026 11.8192 14.2569 15.6846 14.3599 15.7425C14.4452 15.7769 14.5409 15.7741 14.6242 15.7348C14.7204 15.6802 21.4885 11.8 21.4885 11.8L21.8 12.349L14.605 17.8Z" fill="#0A2767"/>
<path d="M21.7892 12.3616V12.362L21.7808 12.3667L21.7787 12.3679L14.9237 16.2396C14.6468 16.4168 14.297 16.4384 14 16.2968L16.3875 19.4703L21.6081 20.5972L21.6079 20.6C21.8543 20.4233 22.0002 20.14 22 19.8384V12C22 12.1492 21.9196 12.2871 21.7892 12.3616Z" fill="#1490DF"/>
<path opacity="0.05" d="M22 19.8371V19.3734L15.6859 15.8L14.9237 16.2313C14.6468 16.4088 14.297 16.4305 14 16.2886L16.3875 19.4683L21.6081 20.5972L21.6079 20.6C21.8543 20.423 22.0002 20.1392 22 19.8371Z" fill="black"/>
<path opacity="0.1" d="M22 20.0824L15.2249 16.2L15.1042 16.2691C14.8332 16.4451 14.4907 16.4666 14.2 16.3259L16.537 19.478L21.6473 20.5972L21.6471 20.6C21.8205 20.4735 21.9452 20.2907 22 20.0824Z" fill="black"/>
<path d="M7.21858 12.3709V12.3646H7.21233L7.1936 12.352C7.07223 12.2769 6.99878 12.1434 7 12V19.8571C6.99968 20.1073 7.09826 20.3473 7.274 20.5242C7.44974 20.7011 7.68818 20.8003 7.93671 20.8H21.0505C21.1285 20.7992 21.2061 20.7887 21.2815 20.7686C21.3207 20.7617 21.3585 20.749 21.3939 20.7309C21.4072 20.7296 21.42 20.7253 21.4314 20.7183C21.4825 20.6973 21.5308 20.6698 21.575 20.6366C21.5875 20.6303 21.5938 20.6303 21.6 20.6177L7.21858 12.3709Z" fill="#28A8EA"/>
<path d="M20.8 5H17V8.8H20.8V5Z" fill="#50D9FF"/>
<path d="M12.6 5H8.2V8.8H12.6V5Z" fill="#0078D4"/>
<path opacity="0.1" d="M13.2 17.3719V7.22808C13.1987 6.7713 12.8293 6.40135 12.3733 6.40002H8.2593V8.88423H8.25934V11.0306L7.21721 11.6253L7.21473 11.6267L7.20679 11.6312V11.6315C7.07894 11.7053 7.00016 11.8419 7.00013 11.9897L7.00025 11.9923L7 11.9901V18.2H12.3733C12.8293 18.1987 13.1987 17.8287 13.2 17.3719Z" fill="black"/>
<path opacity="0.2" d="M12.6 17.9719V7.82806C12.5986 7.37128 12.228 7.00133 11.7703 7H8.26381V8.86316H8.26385V11.0095L7.21799 11.6042L7.2155 11.6056L7.20753 11.6101V11.6104C7.07923 11.6843 7.00016 11.8208 7.00013 11.9687L7.00025 11.9713L7 11.969V18.8H11.7703C12.228 18.7987 12.5987 18.4287 12.6 17.9719Z" fill="black"/>
<path opacity="0.2" d="M12.6 16.7686V7.83136C12.5986 7.37276 12.228 7.00134 11.7703 7H8.26381V8.87059H8.26385V11.0255L7.21799 11.6226L7.2155 11.624L7.20753 11.6285V11.6288C7.07923 11.703 7.00016 11.8401 7.00013 11.9885L7.00025 11.9911L7 11.9889V17.6H11.7703C12.228 17.5986 12.5987 17.2272 12.6 16.7686Z" fill="black"/>
<path opacity="0.2" d="M12 16.7686V7.83136C11.9986 7.37276 11.6263 7.00134 11.1666 7H8.26946V8.87059H8.26949V11.0255L7.21896 11.6226L7.21646 11.624L7.20846 11.6285V11.6288C7.07958 11.703 7.00016 11.8401 7.00013 11.9885L7.00025 11.9911L7 11.9889V17.6H11.1666C11.6263 17.5986 11.9986 17.2272 12 16.7686Z" fill="black"/>
<path d="M2.83334 7H11.1667C11.6269 7 12 7.37309 12 7.83332V16.1667C12 16.3877 11.9122 16.5996 11.7559 16.7559C11.5996 16.9122 11.3877 17 11.1667 17H2.83333C2.61232 17 2.40036 16.9122 2.24408 16.7559C2.08779 16.5996 2 16.3877 2 16.1667V7.83333C2 7.37309 2.3731 7 2.83334 7Z" fill="#0078D4"/>
<path d="M4.54456 10.331C4.76354 9.86314 5.11703 9.47163 5.55962 9.20673C6.04992 8.92533 6.60817 8.78504 7.17289 8.80132C7.69611 8.7899 8.21238 8.92291 8.66527 9.18581C9.09148 9.44027 9.43473 9.81344 9.65324 10.2599C9.89113 10.7518 10.0097 11.2931 9.99924 11.8397C10.0109 12.411 9.88879 12.9771 9.64282 13.4926C9.41945 13.9549 9.06582 14.3414 8.62566 14.6043C8.15519 14.8754 7.61955 15.012 7.07702 14.9992C6.54256 15.012 6.01485 14.8775 5.5513 14.6105C5.12162 14.3556 4.77428 13.982 4.55081 13.5344C4.31129 13.0496 4.19121 12.5143 4.20064 11.9734C4.19015 11.4069 4.30772 10.8454 4.54456 10.331ZM5.62632 12.9702C5.74317 13.2659 5.94118 13.5224 6.19743 13.7099C6.45842 13.893 6.77106 13.9875 7.08951 13.9795C7.42868 13.9928 7.76298 13.8952 8.04206 13.7015C8.29528 13.514 8.48805 13.256 8.59649 12.9597C8.71828 12.6295 8.77833 12.2795 8.77366 11.9274C8.77747 11.5722 8.72109 11.2189 8.60691 10.8826C8.50611 10.5798 8.32007 10.3128 8.07124 10.1136C7.79939 9.91022 7.46595 9.80691 7.12704 9.82107C6.80175 9.81274 6.48218 9.90783 6.21411 10.0927C5.9529 10.2808 5.75048 10.5396 5.63051 10.8387C5.36516 11.524 5.36367 12.2838 5.62634 12.9702H5.62632Z" fill="white"/>
</svg>

<svg xmlns="http://www.w3.org/2000/svg" fill="none" viewBox="0 0 24 24">
  <path fill="#0A2767" d="M21.781 12.9c.092-.29.165-.586.219-.886a.42.42 0 0 0-.208-.364l-.008-.005-.003-.001-6.773-3.893a.93.93 0 0 0-.924-.052.933.933 0 0 0-.091.052l-6.774 3.893-.003.001-.008.005a.42.42 0 0 0-.208.364c.054.3.127.596.219.886l7.182 5.3 7.38-5.3Z"/>
  <path fill="#0364B8" d="M19.5 3h-9A1.5 1.5 0 0 0 9 4.5V5h12v-.5A1.5 1.5 0 0 0 19.5 3ZM13 9H9v8h8v-4h-4V9Z"/>
  <path fill="#0078D4" d="M21 13h-4v4h4v-4Zm-4-4h-4v4h4V9Zm-4-4H9v4h4V5Z"/>
  <path fill="#50D9FF" d="M21 5h-4v4h4V5Z"/>
  <path fill="#28A8EA" d="M21 9h-4v4h4V9Zm-4-4h-4v4h4V5Z"/>
  <path fill="#1490DF" d="m21.79 12.362-.01.005h-.001l-6.855 3.873a.954.954 0 0 1-.924.057l2.387 3.173 5.221 1.127v.003a.937.937 0 0 0 .392-.762V12c0 .15-.08.287-.21.362Z"/>
  <path fill="#28A8EA" d="M7.219 12.37v-.005h-.007l-.018-.013A.41.41 0 0 1 7 12v7.857c0 .25.098.49.274.667a.932.932 0 0 0 .663.276H21.05a.934.934 0 0 0 .232-.031.398.398 0 0 0 .112-.038.652.652 0 0 0 .181-.094c.012-.007.019-.007.025-.02L7.219 12.372Z"/>
  <path fill="#0078D4" d="M2.833 7h8.334c.46 0 .833.373.833.833v8.334a.833.833 0 0 1-.833.833H2.833A.833.833 0 0 1 2 16.167V7.833c0-.46.373-.833.833-.833Z"/>
  <path fill="#fff" d="M4.545 10.331A2.59 2.59 0 0 1 5.56 9.207 3.063 3.063 0 0 1 7.173 8.8a2.849 2.849 0 0 1 1.492.385c.426.254.77.627.988 1.074.238.492.357 1.033.346 1.58a3.665 3.665 0 0 1-.356 1.653 2.625 2.625 0 0 1-1.017 1.111A2.962 2.962 0 0 1 7.077 15a2.917 2.917 0 0 1-1.526-.389 2.603 2.603 0 0 1-1-1.076 3.39 3.39 0 0 1-.35-1.56 3.76 3.76 0 0 1 .344-1.643Zm1.081 2.64c.117.295.315.551.571.739.261.183.574.277.893.27.339.013.673-.085.952-.279.253-.187.446-.445.554-.741.122-.33.182-.68.178-1.033a3.145 3.145 0 0 0-.167-1.044c-.1-.303-.287-.57-.536-.77a1.473 1.473 0 0 0-.944-.292 1.539 1.539 0 0 0-.913.272 1.698 1.698 0 0 0-.583.746 2.967 2.967 0 0 0-.005 2.131Z"/>
</svg>
